X: 117
T: Monkey On A Dog Cart
B: canberra pickers and fiddlers
B: old time tunes update
B: tunes
M:C|
Q: 1/4=200
K:C
V:1 
"C"c'2e4g2 | aged c4 | c'2e4g2 |"Am"a3ba4 |
"C"c'2e4g2 | aged c4 | "G"gage dB3 |1 "C"c3dc4 :|2 "C"c3dc2cA |]
|:"C"G2A2c2d2 |eg2a ged2 | G2A2c2d2 |"Am"[c4a4][c3a3]A |
"C"G2A2c2d2 |eg2a ged2 | "G"abag ed3 |1"C"c3dc2cA :|2 "C"c3dc4 |]
% abcbook-tune_id 67a7d9eccd64b21bf39a1b1f
% abcbook-tune_composer_id 
% abcbook-link-0 https://www.youtube.com/watch?v=eFm-qAn_LTE
% abcbook-link-title-0 Monkey In The Dogcart Hoyt Ming And His Pep Steppers
% abcbook-boost 0
% abcbook-difficulty 0
% abcbook-tags old time tunes
% abcbook-tablature 
% abcbook-transpose 
% abcbook-tuning GDAE
% abcbook-lastupdated 1739173422202
% abcbook-src-url 
% abcbook-soundfonts 
% abcbook-repeats 1


